X: 1
T: String Quartet in C Major opus 54 no 2 mvt 4
C: Franz Joseph Haydn
%%abc-version 2.0
%%abcx-abcm2ps-target-version 5.9.1 (29 Sep 2008)
%%abc-creator hum2abc beta
%%abcx-conversion-date 2021/02/14 14:38:21
%%abc-copyright Copyright (c) 1994, 2000 Center for Computer Assisted Research in the Humanities
%%abc-edited-by Walter Hewlett
%%abcx-initial-encoding-date 1994/08/31
%%gracespace 0 6 6
%%humdrum-veritas 1500600313
%%humdrum-veritas-data 3413232608
%%linebreak <none>
%%barnumbers 0
L: 1/16
M: 2/4
N: Derived from op54n2-04.krn
Q: "Finale: Adagio---Presto---Adagio"
%%staves [1 2 3 4]
V: 1 clef=treble
V: 2 clef=treble
V: 3 clef=alto
V: 4 clef=bass
K: C
[V:1].G,>.G,x//x//x//x//x//x//x//x//x//x//x//x//x//x//x//x//x//x//x//x//x//x//x//x//[I:setbarnb1]|
[V:2].G,>.G,x//x//x//x//x//x//x//x//x//x//x//x//x//x//x//x//x//x//x//x//x//x//x//x//|
[V:3].G,>.G,x//x//x//x//x//x//x//x//x//x//x//x//x//x//x//x//x//x//x//x//x//x//x//x//|
[V:4].G,,>.G,,x//x//x//x//x//x//x//x//x//x//x//x//x//x//x//x//x//x//x//x//x//x//x//x//|
[V:1]C4 z4 |
[V:2]C4 z4 |
[V:3]C4 E2F2 |
[V:4]C,4 C2D2 |
[V:1]z4 z2g2 |
[V:2]z4 z2G2 |
[V:3]G3A/G/ F2E2 |
[V:4]E3F/E/ D2C2 |
[V:1]g3a/f/ e2f3/d/ |
[V:2]G3A/F/ E2A3/F/ |
[V:3]D2B,2 .C2.F,2 |
[V:4]B,2G,2 .C2.F,2 |
[V:1]c4 B2z2 |
[V:2]E4 D2z2 |
[V:3].G,2.G2 .G,2.G,3/.G,/ |
[V:4].G,2.G,,2 .G,,2.G,,3/.G,,/ |
[V:1]z4 z2.G3/.G/ |
[V:2]z4 z2.G3/.G/ |
[V:3]F3G/F/ E2F2 |
[V:4]D3E/D/ ^C2D2 |
[V:1]a3(3c'/b/a/ .g.f.e.d |
[V:2]f3(3a/g/f/ .e.d.c.A |
[V:3]D4 E.B,.C.F, |
[V:4]B,4 =C.G,.A,.F, |
[V:1]c2z2 G3A/F/ |
[V:2]E2z2 B,4 |
[V:3]G,2z2 F,3D, |
[V:4]G,4 z2G,,2 |
[V:1]E2z2 z2:|]
[V:2]C2z2 z2:|]
[V:3]C,2z2 z2:|]
[V:4]C,2z2 z2:|]
[V:1]E2z2 z2.G3/.G/ [I:setbarnb9] |
[V:2]CE.E.E .E.E.E.E |
[V:3]C,.C.C.C .C.C.C.C |
[V:4]C,,2E,,2 G,,2C,2 |
[V:1]c4- cB/c/!beambr1!B/c/e/c/ |
[V:2].E.E.E.E .E.E.E.E |
[V:3].C.C.C.C .C.C.C.C |
[V:4]E,2G,2 C2E2 [K:clef=treble]|
[V:1]G2z2 z2.G3/.G/ |
[V:2]EEEE EEEE |
[V:3]CCCC CCCC |
[V:4]G2c2 e2c2 [K:clef=bass]|
[V:1]d4- d^c/d/!beambr1!c/d/f/d/ |
[V:2][FB,][FB,][FB,][FB,] [FB,][FB,][FB,][FB,] |
[V:3][DG,][DG,][DG,][DG,] [DG,][DG,][DG,][DG,] |
[V:4]G,,2G,2 B,2D2 [K:clef=treble]|
[V:1]G2z2 z2.G3/.G/ |
[V:2][FB,][FB,][FB,][FB,] [FB,][FB,][FB,][FB,] |
[V:3][DG,][DG,][DG,][DG,] [DG,][DG,][DG,][DG,] |
[V:4]G2B2 d2f2 [K:clef=bass]|
[V:1]e4- e^d/e/!beambr1!d/e/=f/=d/ |
[V:2][EG,][EG,][EG,][EG,] [EB,][EB,][EB,][EB,] |
[V:3]CCCC DDDD |
[V:4]C,,2C,2 ^G,,2^G,2 |
[V:1]d/=c/B/c/!beambr1!B/c/e/c/ c/B/d/c/!beambr1!e/d/^f/g/ |
[V:2][EC][EC][DA,][DA,] [DG,][DG,]GG |
[V:3]CCCC B,B,DD |
[V:4]A,2^F,2 =G,2B,,2 |
[V:1]g/^d/d/e/!beambr1!e/B/c/A/ G2A3/G/ |
[V:2]GGGG [GB,][GB,][^FA,][FA,] |
[V:3]EEA,A, DDCC |
[V:4]C,2C,2 D,2D,2 |
[V:1]G2z2 z2.G3/.G/ |
[V:2][GG,][GG,][GG,][GG,] [GA,][GA,][=FB,][FB,] |
[V:3]B,B,B,B, CCDD |
[V:4]G,,2G,2 z4 |
[V:1]c4- cB/c/!beambr1!B/c/e/c/ |
[V:2]EEEE EEEE |
[V:3]CCCC CCCC |
[V:4]C,,2E,,2 G,,2C,2 |
[V:1]G2z2 z2.G3/.G/ |
[V:2]EEEE EEEE |
[V:3]CCCC CCCC |
[V:4]E,2G,2 C2E2 |
[V:1]=d4- d^c/d/!beambr1!c/d/f/d/ |
[V:2][FB,][FB,][FB,][FB,] [FB,][FB,][FB,][FB,] |
[V:3][DG,][DG,][DG,][DG,] [DG,][DG,][DG,][DG,] |
[V:4]G,,2G,2 B,2D2 [K:clef=treble]|
[V:1]G2z2 z2.G3/.G/ |
[V:2][FB,][FB,][FB,][FB,] [FB,][FB,][FB,][FB,] |
[V:3][DG,][DG,][DG,][DG,] [DG,][DG,][DG,][DG,] |
[V:4]G2B2 d2f2 [K:clef=bass]|
[V:1]e4- e^d/e/!beambr1!d/e/=f/=d/ |
[V:2][EG,][EG,][EG,][EG,] [EB,][EB,][EB,][EB,] |
[V:3]CCCC DDDD |
[V:4]C,,2C,2 ^G,,2^G,2 |
[V:1]d/c/B/c/!beambr1!B/c/e/c/ c/B/d/c/!beambr1!e/d/^f/g/ |
[V:2][EC][EC][DA,][DA,] [DG,][DG,]GG |
[V:3]CCCC B,B,DD |
[V:4]A,2^F,2 =G,2B,,2 |
[V:1]g/^d/d/e/!beambr1!e/B/c/A/ G2A3/G/ |
[V:2]GGGG [GB,][GB,][^FA,][FA,] |
[V:3]EEA,A, DDCC |
[V:4]C,2C,2 D,2D,2 |
[V:1]G2z2 z2.G3/.G/ |
[V:2][GB,][GB,][GB,][GB,] [GB,][GB,][GB,][GB,] |
[V:3]B,DDD DDDD |
[V:4]G,,2B,,2 D,2G,2 |
[V:1]=f4- fe/f/!beambr1!e/f/a/f/ |
[V:2][FG,][FG,][FG,][FG,] [=FG,][FG,][FG,][FG,] |
[V:3][DB,][DB,][DB,][DB,] [DB,][DB,][DB,][DB,] |
[V:4]G,,2B,,2 D,2G,2 |
[V:1]e2z2 z2.c3/.c/ |
[V:2][EG,][EG,][EG,][EG,] [EG,][EG,][EG,][EG,] |
[V:3]CCCC CCCC |
[V:4]C,2E,2 G,2C2 |
[V:1]_b4- ba/b/!beambr1!a/b/d'/b/ |
[V:2][EG,][EG,][EG,][EG,] [EG,][EG,][EG,][EG,] |
[V:3][G_B,][GB,][GB,][GB,] [GB,][GB,][GB,][GB,] |
[V:4]C,2E,2 G,2C2 |
[V:1]a2z2 z2A3/A/ |
[V:2][FA,][FA,][FA,][FA,] [FA,][FA,][FA,][FA,] |
[V:3]FCCC CCCC |
[V:4]F,,2A,,2 C,2F,2 |
[V:1]a4- a^g/a/!beambr1!g/a/_b/=g/ |
[V:2][EA,][EA,][EA,][EA,] [EA,][EA,][EA,][EA,] |
[V:3]^CCCC CCCC |
[V:4]^C,2E,2 A,2^C2 |
[V:1]g/f/e/f/!beambr1!e/f/a/f/ f/e/g/f/!beambr1!a/g/=b/c'/ |
[V:2]DDGG GGGG |
[V:3]FFDD EE=CC |
[V:4]D,2B,,2 =C,2E,,2 |
[V:1]c'/^g/g/a/!beambr1!a/e/e/f/ f/^c/c/d/!beambr1!d/A/d/=c/ |
[V:2]AAAA AAAA |
[V:3]CC^CC DDDD |
[V:4]F,,6 ^F,,2 |
[V:1]c/B/A/G/G,2 z2.G3/.G/ |
[V:2]GG[GG,][GG,] [GA,][GA,][GB,][GB,] |
[V:3]DDB,B, =CCDD |
[V:4]G,,2G,2 z4 |
[V:1]c4- cB/c/!beambr1!B/c/e/c/ |
[V:2][EC][EC][EC][EC] [EG,][EG,][EG,][EG,] |
[V:3]CCCC CCCC |
[V:4]C,,2C,2 E,2G,2 |
[V:1]G2z2 z2.G3/.G/ |
[V:2][EG,][EG,][EG,][EG,] [EG,][EG,][EG,][EG,] |
[V:3]CCCC CCCC |
[V:4]C2[K:clef=treble]E2 G2c2 [K:clef=bass]|
[V:1]d4- d^c/d/!beambr1!c/d/f/d/ |
[V:2][FB,][FB,][FB,][FB,] [FB,][FB,][FB,][FB,] |
[V:3][DG,][DG,][DG,][DG,] [DG,][DG,][DG,][DG,] |
[V:4]G,,2G,2 B,2D2 [K:clef=treble]|
[V:1]d2z2 z2.G3/.G/ |
[V:2][FB,][FB,][FB,][FB,] [FB,][FB,][FB,][FB,] |
[V:3][DG,][DG,][DG,][DG,] [DG,][DG,][DG,][DG,] |
[V:4]G2B2 d2f2 [K:clef=bass]|
[V:1]e2>f2 !trill!f3e/f/ |
[V:2]Eccc cccc |
[V:3][EG,][EG,][EG,][EG,] CCCC |
[V:4]C,,2C,2 A,,2A,2 |
[V:1]g/f/e/f/!beambr1!g/a/b/c'/ c'/^g/g/a/!beambr1!a/e/f/d/ |
[V:2]cccc AAAA |
[V:3]G,G,G,G, A,A,FF |
[V:4]E,,2E,2 F,,2F,2 |
[V:1]c2-c/e/g/e/ g/e/g/e/.f.B ||
[V:2]Eccc ccBB ||
[V:3]EEEE EGFF ||
[V:4]G,,2G,2 G,,2G,2 ||
[V:1][K:Eb]c2z2 z2.G3/ .G/|
[V:2][K:Eb]cEE EEEE E|
[V:3][K:Eb]ECC CCCC C|
[V:4][K:Eb]C,,2E,,2 G,,2C,2 |
[V:1]c4- c=B/c/!beambr1!=B/c/e/c/ |
[V:2]EEEE EEEE |
[V:3]CCCC CCCC |
[V:4]E,2G,2 C2E2 [K:clef=treble]|
[V:1]G2z2 z2.G3/.G/ |
[V:2]EEEE EEEE |
[V:3]CCCC CCCC |
[V:4]G2c2 e2[K:clef=bass]C,2 |
[V:1]A4- AB/c/!beambr1!_d/e/f/d/ |
[V:2]FFFF FFFF |
[V:3]A,A,A,A, A,A,A,A, |
[V:4]_D,,2F,,2 A,,2_D,2 |
[V:1]B4- Bc/_d/!beambr1!e/d/c/d/ |
[V:2]EEEE EEEE |
[V:3]G,G,A,A, B,B,G,G, |
[V:4]E,2F,2 G,2E,2 |
[V:1]c>=d!beambr1!!trill!d3/c//d// e>f!beambr1!!trill!f3/e//f// |
[V:2]EEAA GGFF |
[V:3]CCB,B, B,B,B,B, |
[V:4]A,2F,2 G,2=D,2 |
[V:1]g2b/a/g/a/ ba/g/!beambr1!f/e/d/e/ |
[V:2]EEEE EEEE |
[V:3]B,B,EE B,B,B,B, |
[V:4]E,2C,2 G,,2G,2 |
[V:1]d/c/=B/c/!beambr1!d/e/c/A/ G2!trill!F2 |
[V:2]EEEE EEDD |
[V:3]CCCC B,B,A,A, |
[V:4]A,2A,,2 B,,2B,,2 |
[V:1]E4 z2.B3/.B/ |
[V:2]E[GB,][GB,][GB,] [GB,][GB,][GB,][GB,] |
[V:3]G,EEE EEEE |
[V:4]E,,2G,,2 B,,2E,2 |
[V:1]a4- ag/a/!beambr1!g/a/b/a/ |
[V:2][FB,][FB,][FB,][FB,] [FB,][FB,][FB,][FB,] |
[V:3]DDDD DDDD |
[V:4]D,2F,2 B,2D2 |
[V:1]g2z2 z2.G3/.G/ |
[V:2][GB,][GB,][GB,][GB,] [GB,][GB,][GB,][GB,] |
[V:3]EEEE EEEE |
[V:4]E,,2G,,2 B,,2E,2 |
[V:1]g4- g^f/g/!beambr1!f/g/a/=f/ |
[V:2][FG,][FG,][FG,][FG,] [DG,][DG,][DG,][DG,] |
[V:3]DDDD =B,B,B,B, |
[V:4]=B,,2D,2 G,2=B,2 |
[V:1]e2z2 z2.G3/.G/ |
[V:2][EG,][EG,][EG,][EG,] [EG,][EG,][EG,][EG,] |
[V:3]CCCC CCCC |
[V:4]C,2E,2 G,2C2 |
[V:1]e4- ed/c/!beambr1!=B/c/d/c/ |
[V:2]^FFFF FFFF |
[V:3]CCCC A,A,CC |
[V:4]A,,2C,2 E,2A,2 |
[V:1]g2z2 f/e/d/c/!beambr1!=B/c/d/c/ |
[V:2]GGGG [^FC][FC][FC][FC] |
[V:3]=B,B,B,B, EEEE |
[V:4]G,,2G,2 G,,2G,2 |
[V:1]=B2z2 F/E/D/C/!beambr1!=B,/C/D/C/ |
[V:2][G=B,][GB,][GB,][GB,] ^FFFF |
[V:3]DDDD EEE,E, |
[V:4]G,,2G,2 G,,2G,2 |
[V:1]=B,2!fermata!z2 ]|:
[V:2]G2!fermata!z2 ]|:
[V:3]D,2z2 ]|:
[V:4]G,,2!fermata!z2 ]|:
[V:1][K:C].E2.F2 x4[I:setbarnb57] |
[V:2][K:C].C2.D2 x4|
[V:3][K:C]z4 x4|
[V:4][K:C]z4 x4|
[V:1]^F2G2 .A2.B2 |
[V:2]^D2=E2 .F2.=D2 |
[V:3]z8 |
[V:4]z2.C,2 .C,,2.C,2 |
[V:1]d2c2 .B2.c2 |
[V:2]F2E2 .G2.A2 |
[V:3]z8 |
[V:4].C,,2.C,2 z4 |
[V:1]^c2d2 .f2.e2 |
[V:2]^A2B2 .d2.=c2 |
[V:3]z2.G2 .B,2.=C2 |
[V:4]z8 |
[V:1]e2d2 .=c'2.c'2 |
[V:2]c2B2 .c2.c2 |
[V:3].G,2.G2 .G2.G2 |
[V:4]z4 .E2.E2 |
[V:1]c'2b2 .c'2.c'2 |
[V:2]d4 .c2.c2 |
[V:3]G4 .G2.G2 |
[V:4]F4 .E2.E2 |
[V:1]c'2b2 .c'2.c'2 |
[V:2]d4 .c2.c2 |
[V:3]G4 .G2.G2 |
[V:4]F4 .E2.E2 |
[V:1].a2.a2 g^fef |
[V:2].e2.e2 .A2.A2 |
[V:3].c2.c2 .c2.c2 |
[V:4].C2.C2 .D2.D2 |
[V:1]g4 :|]
[V:2]B4 :|]
[V:3]B4 :|]
[V:4]G,4 :|]
[V:1].B2.c2 x4[I:setbarnb65] |
[V:2].G2.A2 x4|
[V:3]z4 x4|
[V:4]z4 x4|
[V:1]^c2d2 .f2.e2 |
[V:2]^A2B2 .d2.=c2 |
[V:3]z2.G2 .B,2.=C2 |
[V:4]z8 |
[V:1]e2d2 .e2.f2 |
[V:2]c2B2 .c2.d2 |
[V:3].G,2.G2 z4 |
[V:4]z8 |
[V:1]^f2g2 .=c'2._b2 |
[V:2]^d2e2 .a2.g2 |
[V:3]z8 |
[V:4]z2.C2 .C,2.E,2 |
[V:1]_b2a2 .a2.e2 |
[V:2]g2f2 .f2.^c2 |
[V:3]z4 z2.A2 |
[V:4].F,,2.F,2 z4 |
[V:1]g2f2 .a2.d2 |
[V:2]f2d2 .f2.B2 |
[V:3].D2.d2 z4 |
[V:4]z4 z2.G,2 |
[V:1]f2e2 .g2.e2 |
[V:2]d2c2 .e2.G2 |
[V:3]z4 z2.G2 |
[V:4].C,2.C2 z2.C,2 |
[V:1]^c2d2 .A2.d2 |
[V:2]_B2A2 .F2.A2 |
[V:3].E2.A2 z2.^F2 |
[V:4].F,2.F,,2 z2.^F,2 |
[V:1]=c2B2 .B2.c2 |
[V:2]E2D2 .G2.A2 |
[V:3].G2.G,2 z4 |
[V:4].G,2.G,,2 z4 |
[V:1]e2d2 .d2.e2 |
[V:2]c2B2 .B2.^c2 |
[V:3]z8 |
[V:4]z8 |
[V:1]g2f2 z4 |
[V:2]e2d2 z4 |
[V:3]z4 .B,2.=C2 |
[V:4]z4 .G,2.A,2 |
[V:1]z8 |
[V:2]z8 |
[V:3]E2D2 .D2.E2 |
[V:4]C2B,2 .B,2.^C2 |
[V:1]z4 .d2.e2 |
[V:2]z4 .B2.^c2 |
[V:3]G2F2 z4 |
[V:4]E2D2 z4 |
[V:1]g2f2 z4 |
[V:2]e2d2 z4 |
[V:3]z4 .D,2.E,2 |
[V:4]z4 .B,,2.^C,2 |
[V:1]z8 |
[V:2]z8 |
[V:3]G,2F,2 z4 |
[V:4]E,2D,2 z4 |
[V:1]z8 |
[V:2]z8 |
[V:3]z8 |
[V:4]z8 |
[V:1]z4 .E2.F2 |
[V:2]z4 .C2.D2 |
[V:3]z8 |
[V:4]z8 |
[V:1]^F2G2 .A2.B2 |
[V:2]^D2E2 .F2.=D2 |
[V:3]z8 |
[V:4]z2.=C,2 .C,,2.C,2 |
[V:1]d2c2 .B2.c2 |
[V:2]F2E2 .G2.A2 |
[V:3]z8 |
[V:4].C,,2.C,2 z4 |
[V:1]^c2d2 .f2.e2 |
[V:2]^A2B2 .d2.=c2 |
[V:3]z2.G2 .B,2.=C2 |
[V:4]z8 |
[V:1]e2d2 .=c'2.c'2 |
[V:2]c2B2 .c2.c2 |
[V:3].G,2.G2 .G2.G2 |
[V:4]z4 .E2.E2 |
[V:1]c'2b2 .c'2.c'2 |
[V:2]d4 .c2.c2 |
[V:3]G,2.G2 .G2.G2 |
[V:4]F4 .E2.E2 |
[V:1]c'2b2 .c'2.c'2 |
[V:2]d4 .c2.c2 |
[V:3]G,2.G2 .G2.G2 |
[V:4]F4 .E,2.E,2 |
[V:1].a2.a2 cBAB |
[V:2].c2.c2 .F2.F2 |
[V:3].A2.A2 .D2.D2 |
[V:4].F,2.F,2 .G,2.G,2 |
[V:1].c2z2 .B2.c2 |
[V:2]E2z2 .G2.A2 |
[V:3].E2z2 z4 |
[V:4].C,2.C2 z4 |
[V:1]^c2d2 .f2.e2 |
[V:2]^A2B2 .d2.=c2 |
[V:3]z2.G2 .B,2.=C2 |
[V:4]z8 |
[V:1]e2d2 .e2.f2 |
[V:2]c2B2 .c2.d2 |
[V:3].G,2.G2 z4 |
[V:4]z8 |
[V:1]^f2g2 .=c'2._b2 |
[V:2]^d2e2 .a2.g2 |
[V:3]z8 |
[V:4]z2.C2 .C,2.E,2 |
[V:1]_b2a2 .a2.e2 |
[V:2]g2f2 .f2.^c2 |
[V:3]z4 z2.A2 |
[V:4].F,,2.F,2 z4 |
[V:1]g2f2 .a2.d2 |
[V:2]f2=d2 .f2.B2 |
[V:3].D2.d2 z4 |
[V:4]z4 z2.G,2 |
[V:1]f2e2 .g2.e2 |
[V:2]d2c2 .e2.A2 |
[V:3]z4 z2.G2 |
[V:4].C,2.C2 z2.C,2 |
[V:1]^c2d2 .A2.d2 |
[V:2]_B2A2 .F2.A2 |
[V:3].E2.A2 z2.^F2 |
[V:4].F,2.F,,2 z2.^F,2 |
[V:1]=c2B2 .B2.c2 |
[V:2]E2D2 .G2.A2 |
[V:3].G2.G,2 z4 |
[V:4].G,2.G,,2 z4 |
[V:1]e2d2 .d2.e2 |
[V:2]c2B2 .B2.^c2 |
[V:3]z8 |
[V:4]z8 |
[V:1]g2f2 z4 |
[V:2]e2d2 z4 |
[V:3]z4 .B,2.=C,2 |
[V:4]z4 .G,2.A,2 |
[V:1]z8 |
[V:2]z8 |
[V:3]E2D2 .D2.E2 |
[V:4]C2B,2 .B,2.^C2 |
[V:1]z4 .d2.e2 |
[V:2]z4 .B2.^c2 |
[V:3]G2F2 z4 |
[V:4]E2D2 z4 |
[V:1]g2f2 z4 |
[V:2]e2d2 z4 |
[V:3]z4 .D,2.E,2 |
[V:4]z4 .B,,2.^C,2 |
[V:1]z8 |
[V:2]z8 |
[V:3]G,2F,2 z4 |
[V:4]E,2D,2 z4 |
[V:1]z8 |
[V:2]z8 |
[V:3]z8 |
[V:4]z8 |
[V:1]z4 .E2.F2 |
[V:2]z4 .=C2.D2 |
[V:3]z8 |
[V:4]z8 |
[V:1]^F2G2 .A2.B2 |
[V:2]^D2E2 .F2.=D2 |
[V:3]z8 |
[V:4]z2.=C,2 .C,,2.C,2 |
[V:1]d2c2 .B2.c2 |
[V:2]F2E2 .G2.A2 |
[V:3]z8 |
[V:4].C,,2.C,2 z4 |
[V:1]^c2d2 .f2.e2 |
[V:2]^A2B2 .d2.=c2 |
[V:3]z2.G2 .B,2.=C2 |
[V:4]z8 |
[V:1]e2d2 .=c'2.c'2 |
[V:2]c2B2 .c2.c2 |
[V:3].G,2.G2 .G2.G2 |
[V:4]z4 .E2.E2 |
[V:1]c'2b2 .c'2.c'2 |
[V:2]d4 .c2.c2 |
[V:3]G,2.G2 .G2.G2 |
[V:4]F4 .E2.E2 |
[V:1]c'2b2 .c'2.c'2 |
[V:2]d4 .c2.c2 |
[V:3]G,2.G2 .G2.G2 |
[V:4]F4 .E,2.E,2 |
[V:1].a2.a2 cBAB |
[V:2].c2.c2 .F2.F2 |
[V:3].A2.A2 .D2.D2 |
[V:4].F,2.F,2 .G,2.G,2 |
[V:1].c2.c2 .f2.f2 |
[V:2]E4 .c2.c2 |
[V:3]C4 .A2.A2 |
[V:4]A,4 z4 |
[V:1]f2e2 .^d2.d2 |
[V:2].B2.B2 .c2.c2 |
[V:3].^G2.G2 .A2.A2 |
[V:4]z8 |
[V:1]^d2e2 .e2.e2 |
[V:2].B2.B2 ._B2.B2 |
[V:3].^G2.G2 .=G2.G2 |
[V:4]z8 |
[V:1]e2=d2 .^c2.c2 |
[V:2].A2.A2 ._B2.B2 |
[V:3].^F2.F2 .G2.G2 |
[V:4]z8 |
[V:1]^c2d2 .a2.a2 |
[V:2].A2.A2 .d2.d2 |
[V:3].^F2.F2 .=B2.B2 |
[V:4]z4 .=F2.F2 |
[V:1]a2g2 .=c'2.c'2 |
[V:2]d2e2 .=c2.c2 |
[V:3]B2=c2 .G2.G2 |
[V:4]F2E2 .E2.E2 |
[V:1]c'2b2 .c'2.c'2 |
[V:2]d4 .c2.c2 |
[V:3]G4 .G2.G2 |
[V:4]F4 .E2.E2 |
[V:1]!sfz!c'2b2 .c'2.c'2 |
[V:2]!sfz!d4 .c2.c2 |
[V:3]!sfz!G4 .G2.G2 |
[V:4]!sfz!F4 .E2.E2 |
[V:1]!sfz!c'2b2 .c'2.c'2 |
[V:2]!sfz!d4 .c2.c2 |
[V:3]!sfz!G4 .G2.G2 |
[V:4]!sfz!F4 .E2.E2 |
[V:1]f'8- |
[V:2]d8- |
[V:3]G8- |
[V:4]B,8- |
[V:1]!fermata!f'4 z2.G,3/.G,/ |
[V:2]!fermata!d4 z2.G,3/.G,/ |
[V:3]!fermata!G4 z2.G,3/.G,/ |
[V:4]!fermata!B,4 z2.G,,3/.G,,/ |
[V:1]C4 z4 |
[V:2]C4 z4 |
[V:3][C4E,4] E2F2 |
[V:4]C,4 C2D2 |
[V:1]z4 z2g2 |
[V:2]z4 z2G2 |
[V:3]G3A/G/ F2E2 |
[V:4]E3F/E/ D2C2 |
[V:1]g3a/f/ e2f3/d/ |
[V:2]G3A/F/ E2A3/F/ |
[V:3]D2B,2 .C2.F,2 |
[V:4]B,2G,2 .C2.F,2 |
[V:1]c4 B2z2 |
[V:2]E4 D2z2 |
[V:3].G,2.G2 .G,2.G,3/.G,/ |
[V:4].G,2.G,,2 .G,,2.G,,3/.G,,/ |
[V:1]z4 z2.G3/.G/ |
[V:2]z4 z2.G3/.G/ |
[V:3]F3G/F/ E2F2 |
[V:4]D3E/D/ ^C2D2 |
[V:1]a3(3c'/b/a/ .g.f.e.d |
[V:2]f3(3a/g/f/ .e.d.c.A |
[V:3]D4 E.B,.C.F, |
[V:4]B,4 =C.G,.A,.F, |
[V:1]c2z2 G3A/F/ |
[V:2]E2z2 B,4 |
[V:3]G,2z2 F,3D, |
[V:4]G,4 z2G,,2 |
[V:1]E2z2 z2.c3/.c/ |
[V:2]C.E.E.E .E.E.E.E |
[V:3].C,.C.C.C .C.C.C.C |
[V:4]C,,2E,,2 G,,2C,2 |
[V:1]_b4- ba/b/!beambr1!a/b/c'/b/ |
[V:2]GGGG GGGG |
[V:3]CCEE EEEE |
[V:4]E,2G,2 C2E2 |
[V:1]a2z2 z2.a3/.a/ |
[V:2]AAAA AAAA |
[V:3]FFFF FFFF |
[V:4]C,,2F,,2 A,,2C,2 |
[V:1]f'4- f'e'/d'/!beambr1!e'/d'/c'/=b/ |
[V:2][=BD][BD][BD][BD] [BD][BD]dd |
[V:3]FFFF FFFF |
[V:4]C,,2=B,2 D2F2 |
[V:1]c'2z2 z2.c3/.c/ |
[V:2]c[EG,][EG,][EG,] [EG,][EG,][EG,][EG,] |
[V:3]ECCC CCCC |
[V:4]C,,2E,,2 G,,2C,2 |
[V:1]_b4- ba/b/!beambr1!a/b/c'/b/ |
[V:2]GGGG GGGG |
[V:3]CCEE EEEE |
[V:4]E,2G,2 C2E2 |
[V:1]a2z2 z2.a3/.a/ |
[V:2]AAAA AAAA |
[V:3]FFFF FFFF |
[V:4]C,,2F,,2 A,,2C,2 |
[V:1]g2f2 g/f/e/d/!beambr1!e/d/c/B/ |
[V:2][=BD][BD][BD][BD] [BD][BD][BD][BD] |
[V:3]FFFF FFFF |
[V:4]C,,2B,2 D2F2 |
[V:1]c2z2 G/F/E/D/!beambr1!E/D/C/B,/ |
[V:2][cE]EEE [FG,][FG,][FG,][FG,] |
[V:3]EG,G,G, [DB,][DB,][DB,][DB,] |
[V:4]C,,2C,2 C,,2C,2 |
[V:1]C2z2 E2zE |
[V:2][E2G,2]z2 [E2G,2]z2 |
[V:3][E2C2]z2 G,2zG, |
[V:4]C,,2z2 C,,2z2 |
[V:1]C2z2 z4 |]
[V:2][E2G,2]z2 z4 |]
[V:3]E,2z2 z4 |]
[V:4]C,,2z2 z4 |]

